icons/folder-messages.svg

<svg xmlns="http://www.w3.org/2000/svg" viewBox="0 0 16 16"><path id="folder" fill="#ff9800" d="m6.922 3.768-.644-.536A1 1 0 0 0 5.638 3H2a1 1 0 0 0-1 1v8a1 1 0 0 0 1 1h12a1 1 0 0 0 1-1V5a1 1 0 0 0-1-1H7.562a1 1 0 0 1-.64-.232"/><path id="motive" fill="#fff9c4" d="M15.5 6h-8a.5.5 0 0 0-.5.5v6a.5.5 0 0 0 .5.5H9v1.5a.5.5 0 0 0 .5.5h.348a.5.5 0 0 0 .278-.084L13 13h2.5a.5.5 0 0 0 .5-.5v-6a.5.5 0 0 0-.5-.5M8 9h4v1H8Zm5 3H8v-1h5zm2-4H8V7h7z"/></svg>

<svg xmlns="http://www.w3.org/2000/svg" viewBox="0 0 16 16">
<path id="folder" fill="#ff9800" d="m6.922 3.768-.644-.536A1 1 0 0 0 5.638 3H2a1 1 0 0 0-1 1v8a1 1 0 0 0 1 1h12a1 1 0 0 0 1-1V5a1 1 0 0 0-1-1H7.562a1 1 0 0 1-.64-.232" />
<path id="motive" fill="#fff9c4" d="m 15.5,6 h -8 A 0.5,0.5 0 0 0 7,6.5 v 6 A 0.5,0.5 0 0 0 7.5,13 H 9 v 1.5 A 0.5,0.5 0 0 0 9.5,15 H 9.8485 A 0.5,0.5 0 0 0 10.126,14.916 L 13,13 h 2.5 A 0.5,0.5 0 0 0 16,12.5 v -6 A 0.5,0.5 0 0 0 15.5,6 M 8,9 h 4 v 1 H 8 Z m 5,3 H 8 v -1 h 5 z M 15,8 H 8 V 7 h 7 z" />
</svg>
